public/sheesh/icons22.svg

<svg fill="none" height="60" viewBox="0 0 61 60" width="61" xmlns="http://www.w3.org/2000/svg" xmlns:xlink="http://www.w3.org/1999/xlink"><linearGradient id="a"><stop offset="0" stop-color="#34c796"/><stop offset="1" stop-color="#0b7a55"/></linearGradient><linearGradient id="b" gradientUnits="userSpaceOnUse" x1="30.1006" x2="30.1006" xlink:href="#a" y1="0" y2="60"/><linearGradient id="c" gradientUnits="userSpaceOnUse" x1="40.0891" x2="40.0891" xlink:href="#a" y1="34.293" y2="45.6263"/><linearGradient id="d" gradientUnits="userSpaceOnUse" x1="20.1011" x2="20.1011" xlink:href="#a" y1="14.293" y2="25.6263"/><linearGradient id="e" gradientUnits="userSpaceOnUse" x1="34.5942" x2="34.5942" xlink:href="#a" y1="17.334" y2="33.6807"/><linearGradient id="f" gradientUnits="userSpaceOnUse" x1="25.5544" x2="25.5544" xlink:href="#a" y1="32.4258" y2="33.4263"/><linearGradient id="g" gradientUnits="userSpaceOnUse" x1="25.9344" x2="25.9344" xlink:href="#a" y1="35.4395" y2="36.4395"/><linearGradient id="h" gradientUnits="userSpaceOnUse" x1="25.6669" x2="25.6669" xlink:href="#a" y1="26.1992" y2="42.6659"/><circle cx="30.1006" cy="30" fill="#151722" r="29" stroke="url(#b)" stroke-width="2"/><path d="m44.7665 34.293c-.5466 0-1 .4533-1 1 0 3.9466-2.7466 7.2533-6.44 8.12l.36-.6c.28-.48.1334-1.0934-.3466-1.3734-.4667-.28-1.0934-.1333-1.3734.3467l-1.4 2.3333c-.1866.3067-.1866.6934-.0133 1 .1733.32.5067.5067.8667.5067 5.6933 0 10.3333-4.64 10.3333-10.3333.0133-.5467-.44-1-.9867-1z" fill="url(#c)"/><path d="m24.7669 14.293c-5.6933 0-10.3333 4.64-10.3333 10.3333 0 .5467.4533 1 1 1s1-.4533 1-1c0-3.9467 2.7467-7.2533 6.44-8.12l-.36.6c-.28.48-.1333 1.0933.3467 1.3733.4666.28 1.0933.1334 1.3733-.3466l1.4-2.3334c.1733-.3066.1867-.68 0-1-.1733-.3066-.5067-.5066-.8667-.5066z" fill="url(#d)"/><path d="m42.7676 25.5607c0 4.1066-2.9867 7.4933-6.8934 8.12 0-.0134 0-.0134 0-.0267-.3866-4.9734-4.4133-9.0267-9.4533-9.4267.6267-3.9066 4.0133-6.8933 8.12-6.8933 4.5467 0 8.2267 3.68 8.2267 8.2267z" fill="url(#e)"/><path d="m27.1811 32.9324c0-.2-.2267-.5066-.5067-.5066h-2.7467v1h2.7467c.28.0133.5067-.2134.5067-.4934z" fill="url(#f)"/><path d="m27.2077 35.4395h-.5333-2.7467v1h3.2934c.4266 0 .72-.2667.72-.5067s-.3067-.4933-.7334-.4933z" fill="url(#g)"/><path d="m33.8736 33.7992c-.3067-4.04-3.5333-7.2666-7.5733-7.5733-.2134-.0133-.4134-.0267-.64-.0267-4.5467 0-8.2267 3.68-8.2267 8.24 0 4.5467 3.68 8.2267 8.2267 8.2267 4.5466 0 8.24-3.68 8.24-8.2267 0-.2266-.0134-.4266-.0267-.64z" fill="url(#h)"/></svg>

<svg width="61" height="60" viewBox="0 0 61 60" fill="none" xmlns="http://www.w3.org/2000/svg">
<circle cx="30.1006" cy="30" r="29" fill="#151722" stroke="url(#paint0_linear_415_1682)" stroke-width="2"/>
<path d="M44.7665 34.293C44.2199 34.293 43.7665 34.7463 43.7665 35.293C43.7665 39.2396 41.0199 42.5463 37.3265 43.413L37.6865 42.813C37.9665 42.333 37.8199 41.7196 37.3399 41.4396C36.8732 41.1596 36.2465 41.3063 35.9665 41.7863L34.5665 44.1196C34.3799 44.4263 34.3799 44.813 34.5532 45.1196C34.7265 45.4396 35.0599 45.6263 35.4199 45.6263C41.1132 45.6263 45.7532 40.9863 45.7532 35.293C45.7665 34.7463 45.3132 34.293 44.7665 34.293Z" fill="url(#paint1_linear_415_1682)"/>
<path d="M24.7669 14.293C19.0736 14.293 14.4336 18.933 14.4336 24.6263C14.4336 25.173 14.8869 25.6263 15.4336 25.6263C15.9803 25.6263 16.4336 25.173 16.4336 24.6263C16.4336 20.6796 19.1803 17.373 22.8736 16.5063L22.5136 17.1063C22.2336 17.5863 22.3803 18.1996 22.8603 18.4796C23.3269 18.7596 23.9536 18.613 24.2336 18.133L25.6336 15.7996C25.8069 15.493 25.8203 15.1196 25.6336 14.7996C25.4603 14.493 25.1269 14.293 24.7669 14.293Z" fill="url(#paint2_linear_415_1682)"/>
<path d="M42.7676 25.5607C42.7676 29.6673 39.7809 33.054 35.8742 33.6807C35.8742 33.6673 35.8742 33.6673 35.8742 33.654C35.4876 28.6806 31.4609 24.6273 26.4209 24.2273C27.0476 20.3207 30.4342 17.334 34.5409 17.334C39.0876 17.334 42.7676 21.014 42.7676 25.5607Z" fill="url(#paint3_linear_415_1682)"/>
<path d="M27.1811 32.9324C27.1811 32.7324 26.9544 32.4258 26.6744 32.4258H23.9277V33.4258H26.6744C26.9544 33.4391 27.1811 33.2124 27.1811 32.9324Z" fill="url(#paint4_linear_415_1682)"/>
<path d="M27.2077 35.4395H26.6744H23.9277V36.4395H27.2211C27.6477 36.4395 27.9411 36.1728 27.9411 35.9328C27.9411 35.6928 27.6344 35.4395 27.2077 35.4395Z" fill="url(#paint5_linear_415_1682)"/>
<path d="M33.8736 33.7992C33.5669 29.7592 30.3403 26.5326 26.3003 26.2259C26.0869 26.2126 25.8869 26.1992 25.6603 26.1992C21.1136 26.1992 17.4336 29.8792 17.4336 34.4392C17.4336 38.9859 21.1136 42.6659 25.6603 42.6659C30.2069 42.6659 33.9003 38.9859 33.9003 34.4392C33.9003 34.2126 33.8869 34.0126 33.8736 33.7992Z" fill="url(#paint6_linear_415_1682)"/>
<defs>
<linearGradient id="paint0_linear_415_1682" x1="30.1006" y1="0" x2="30.1006" y2="60" gradientUnits="userSpaceOnUse">
<stop stop-color="#34C796"/>
<stop offset="1" stop-color="#0B7A55"/>
</linearGradient>
<linearGradient id="paint1_linear_415_1682" x1="40.0891" y1="34.293" x2="40.0891" y2="45.6263" gradientUnits="userSpaceOnUse">
<stop stop-color="#34C796"/>
<stop offset="1" stop-color="#0B7A55"/>
</linearGradient>
<linearGradient id="paint2_linear_415_1682" x1="20.1011" y1="14.293" x2="20.1011" y2="25.6263" gradientUnits="userSpaceOnUse">
<stop stop-color="#34C796"/>
<stop offset="1" stop-color="#0B7A55"/>
</linearGradient>
<linearGradient id="paint3_linear_415_1682" x1="34.5942" y1="17.334" x2="34.5942" y2="33.6807" gradientUnits="userSpaceOnUse">
<stop stop-color="#34C796"/>
<stop offset="1" stop-color="#0B7A55"/>
</linearGradient>
<linearGradient id="paint4_linear_415_1682" x1="25.5544" y1="32.4258" x2="25.5544" y2="33.4263" gradientUnits="userSpaceOnUse">
<stop stop-color="#34C796"/>
<stop offset="1" stop-color="#0B7A55"/>
</linearGradient>
<linearGradient id="paint5_linear_415_1682" x1="25.9344" y1="35.4395" x2="25.9344" y2="36.4395" gradientUnits="userSpaceOnUse">
<stop stop-color="#34C796"/>
<stop offset="1" stop-color="#0B7A55"/>
</linearGradient>
<linearGradient id="paint6_linear_415_1682" x1="25.6669" y1="26.1992" x2="25.6669" y2="42.6659" gradientUnits="userSpaceOnUse">
<stop stop-color="#34C796"/>
<stop offset="1" stop-color="#0B7A55"/>
</linearGradient>
</defs>
</svg>
